src/pos-icons/card-search-outline.svg

<svg height="24" viewBox="0 0 24 24" width="24" xmlns="http://www.w3.org/2000/svg"><path d="m11.5 16c.87 0 1.69-.26 2.38-.7l2.44 2.44 1.42-1.42-2.44-2.43c.44-.7.7-1.51.7-2.39 0-2.5-2-4.5-4.5-4.5s-4.5 2-4.5 4.5 2 4.5 4.5 4.5m0-7c1.38 0 2.5 1.12 2.5 2.5s-1.12 2.5-2.5 2.5-2.5-1.12-2.5-2.5 1.12-2.5 2.5-2.5m8.5-5h-16c-1.1 0-2 .9-2 2v12c0 1.1.9 2 2 2h16c1.1 0 2-.9 2-2v-12c0-1.1-.9-2-2-2m0 14h-16v-12h16z"/></svg>

<?xml version="1.0" encoding="UTF-8"?><!DOCTYPE svg PUBLIC "-//W3C//DTD SVG 1.1//EN" "http://www.w3.org/Graphics/SVG/1.1/DTD/svg11.dtd"><svg xmlns="http://www.w3.org/2000/svg" xmlns:xlink="http://www.w3.org/1999/xlink" version="1.1" id="mdi-card-search-outline" width="24" height="24" viewBox="0 0 24 24"><path d="M11.5 16C12.37 16 13.19 15.74 13.88 15.3L16.32 17.74L17.74 16.32L15.3 13.89C15.74 13.19 16 12.38 16 11.5C16 9 14 7 11.5 7S7 9 7 11.5 9 16 11.5 16M11.5 9C12.88 9 14 10.12 14 11.5S12.88 14 11.5 14 9 12.88 9 11.5 10.12 9 11.5 9M20 4H4C2.9 4 2 4.9 2 6V18C2 19.1 2.9 20 4 20H20C21.1 20 22 19.1 22 18V6C22 4.9 21.1 4 20 4M20 18H4V6H20V18Z" /></svg>
